public/icons/cloud-server.svg

<svg width="64" height="64" viewBox="0 0 64 64" fill="none" xmlns="http://www.w3.org/2000/svg">
<path d="M32.4743 46.6574C32.5316 46.7043 32.5962 46.7403 32.6651 46.764C32.7319 46.8001 32.804 46.8241 32.8783 46.8351C33.1759 46.8351 33.4613 46.7103 33.6717 46.4881C33.8822 46.266 34.0004 45.9646 34.0004 45.6505C34.0004 45.3363 33.8822 45.035 33.6717 44.8128C33.4613 44.5906 33.1759 44.4658 32.8783 44.4658C32.804 44.4768 32.7319 44.5008 32.6651 44.5369C32.5962 44.5606 32.5316 44.5966 32.4743 44.6435L32.2948 44.7857C32.1896 44.8958 32.1062 45.0268 32.0492 45.1712C31.9922 45.3155 31.9629 45.4704 31.9629 45.6268C31.9629 45.7831 31.9922 45.938 32.0492 46.0823C32.1062 46.2267 32.1896 46.3577 32.2948 46.4678L32.4743 46.6574Z" fill="#F3F3F3"/>
<path d="M59.5505 37.9617C58.71 37.9661 57.8935 38.2583 57.2238 38.7945C56.554 39.3307 56.0672 40.0819 55.8364 40.9352H52.9526V36.1966H60.5156C60.6789 36.1939 60.8398 36.1534 60.9868 36.0782C67.8878 28.0109 62.1089 14.3758 52.01 13.8072C49.8872 11.0438 46.9966 9.0533 43.7455 8.11607C40.4944 7.17884 37.0466 7.34215 33.8881 8.583C28.6367 -5.01651 10.1893 -1.64032 9.33654 12.978C7.18756 13.6577 5.24003 14.9089 3.68069 16.6116C2.12135 18.3142 1.0025 20.4113 0.431412 22.7016C-0.139675 24.992 -0.143841 27.3988 0.419312 29.6913C0.982465 31.9838 2.09405 34.0852 3.64748 35.7939C3.75264 35.9202 3.88207 36.0215 4.02718 36.091C4.17229 36.1604 4.32974 36.1964 4.48906 36.1966H12.1642V40.9352H9.24677C8.97748 39.9905 8.39541 39.1796 7.60679 38.6505C6.81818 38.1214 5.87562 37.9093 4.95117 38.053C4.02672 38.1966 3.18205 38.6865 2.57133 39.4331C1.96061 40.1797 1.62458 41.1333 1.62458 42.1198C1.62458 43.1063 1.96061 44.0598 2.57133 44.8065C3.18205 45.5531 4.02672 46.0429 4.95117 46.1866C5.87562 46.3303 6.81818 46.1182 7.60679 45.5891C8.39541 45.0599 8.97748 44.249 9.24677 43.3044H13.219C13.3704 43.3085 13.5211 43.2801 13.6619 43.2211C13.8026 43.1621 13.9306 43.0735 14.0381 42.9609C14.1435 42.8488 14.2265 42.7156 14.2824 42.5691C14.3383 42.4226 14.3659 42.2658 14.3635 42.1079V36.1966H20.9391V51.5968H14.7675C14.4982 50.6522 13.9161 49.8413 13.1275 49.3121C12.3389 48.783 11.3964 48.5709 10.4719 48.7146C9.54746 48.8583 8.70278 49.3481 8.09206 50.0947C7.48134 50.8414 7.14531 51.7949 7.14531 52.7814C7.14531 53.7679 7.48134 54.7215 8.09206 55.4681C8.70278 56.2147 9.54746 56.7046 10.4719 56.8482C11.3964 56.9919 12.3389 56.7798 13.1275 56.2507C13.9161 55.7216 14.4982 54.9107 14.7675 53.966H22.0724C22.37 53.966 22.6554 53.8412 22.8658 53.6191C23.0763 53.3969 23.1945 53.0956 23.1945 52.7814V36.1966H31.9693V42.1198C31.9693 42.434 32.0875 42.7353 32.298 42.9574C32.5084 43.1796 32.7938 43.3044 33.0914 43.3044C33.389 43.3044 33.6744 43.1796 33.8849 42.9574C34.0953 42.7353 34.2135 42.434 34.2135 42.1198V36.1966H41.8887V52.7814C41.8887 53.0956 42.0069 53.3969 42.2173 53.6191C42.4278 53.8412 42.7132 53.966 43.0108 53.966H50.2708C50.5401 54.9107 51.1221 55.7216 51.9107 56.2507C52.6994 56.7798 53.6419 56.9919 54.5664 56.8482C55.4908 56.7046 56.3355 56.2147 56.9462 55.4681C57.5569 54.7215 57.893 53.7679 57.893 52.7814C57.893 51.7949 57.5569 50.8414 56.9462 50.0947C56.3355 49.3481 55.4908 48.8583 54.5664 48.7146C53.6419 48.5709 52.6994 48.783 51.9107 49.3121C51.1221 49.8413 50.5401 50.6522 50.2708 51.5968H44.1329V36.1966H50.7084V42.1198C50.706 42.2777 50.7336 42.4345 50.7895 42.5809C50.8454 42.7274 50.9285 42.8606 51.0338 42.9727C51.1413 43.0854 51.2693 43.1739 51.4101 43.2329C51.5509 43.292 51.7015 43.3203 51.8529 43.3162H55.8252C56.0351 44.0447 56.4325 44.6972 56.9731 45.2011C57.5137 45.7051 58.1763 46.0406 58.8869 46.1703C59.5975 46.3 60.3283 46.2189 60.9978 45.9358C61.6673 45.6528 62.2492 45.179 62.6786 44.5673C63.108 43.9556 63.368 43.23 63.4297 42.4714C63.4914 41.7128 63.3523 40.951 63.0279 40.271C62.7036 39.591 62.2067 39.0194 61.5927 38.6201C60.9787 38.2207 60.2717 38.0092 59.5505 38.0091V37.9617ZM5.53261 43.8849C5.08621 43.8849 4.6581 43.6977 4.34245 43.3644C4.02679 43.0312 3.84946 42.5792 3.84946 42.1079C3.84946 41.6367 4.02679 41.1847 4.34245 40.8514C4.6581 40.5182 5.08621 40.331 5.53261 40.331C5.97753 40.331 6.40421 40.5176 6.71881 40.8497C7.03341 41.1818 7.21016 41.6323 7.21016 42.102C7.21016 42.5717 7.03341 43.0222 6.71881 43.3543C6.40421 43.6864 5.97753 43.873 5.53261 43.873V43.8849ZM11.0421 54.5465C10.5957 54.5465 10.1676 54.3593 9.85196 54.0261C9.53631 53.6928 9.35898 53.2408 9.35898 52.7696C9.35898 52.2983 9.53631 51.8463 9.85196 51.5131C10.1676 51.1798 10.5957 50.9926 11.0421 50.9926C11.4856 50.9926 11.9108 51.1786 12.2244 51.5096C12.5379 51.8406 12.7141 52.2896 12.7141 52.7577C12.7141 53.2259 12.5379 53.6748 12.2244 54.0058C11.9108 54.3369 11.4856 54.5228 11.0421 54.5228V54.5465ZM53.9849 50.9926C54.4313 50.9926 54.8594 51.1798 55.1751 51.5131C55.4907 51.8463 55.6681 52.2983 55.6681 52.7696C55.6681 53.2408 55.4907 53.6928 55.1751 54.0261C54.8594 54.3593 54.4313 54.5465 53.9849 54.5465C53.5415 54.5465 53.1162 54.3605 52.8027 54.0295C52.4891 53.6985 52.313 53.2495 52.313 52.7814C52.313 52.3133 52.4891 51.8643 52.8027 51.5333C53.1162 51.2023 53.5415 51.0163 53.9849 51.0163V50.9926ZM2.24486 26.1984C2.23141 23.6061 3.0608 21.0873 4.59451 19.0628C6.12822 17.0383 8.27341 15.6306 10.6718 15.0748C10.9632 15.0146 11.2201 14.8349 11.3863 14.5751C11.5524 14.3153 11.6143 13.9966 11.5583 13.6887C11.4982 10.9842 12.3767 8.34981 14.0285 6.28154C15.6802 4.21327 17.9912 2.85386 20.5263 2.45925C23.0613 2.06464 25.6456 2.66208 27.7925 4.13906C29.9393 5.61604 31.5007 7.87066 32.1825 10.4784C32.2283 10.6425 32.3071 10.7941 32.4136 10.9229C32.5202 11.0518 32.6519 11.1547 32.7997 11.2247C32.9474 11.2969 33.1082 11.3343 33.2709 11.3343C33.4337 11.3343 33.5945 11.2969 33.7422 11.2247C35.5617 10.3126 37.5518 9.84301 39.5659 9.85055C41.7047 9.85054 43.8142 10.3748 45.7283 11.3821C47.6424 12.3894 49.3088 13.8522 50.5962 15.6552C50.6984 15.7955 50.829 15.9098 50.9785 15.9897C51.1281 16.0697 51.2926 16.1132 51.4602 16.1172C59.6403 16.2238 64.6112 26.6604 59.9321 33.8037H4.94912C3.18878 31.7083 2.22546 28.9991 2.24486 26.1984ZM59.5505 43.8375C59.1041 43.8375 58.676 43.6503 58.3604 43.317C58.0447 42.9838 57.8674 42.5318 57.8674 42.0605C57.8674 41.5893 58.0447 41.1373 58.3604 40.8041C58.676 40.4708 59.1041 40.2836 59.5505 40.2836C59.9969 40.2836 60.4251 40.4708 60.7407 40.8041C61.0564 41.1373 61.2337 41.5893 61.2337 42.0605C61.2337 42.5318 61.0564 42.9838 60.7407 43.317C60.4251 43.6503 59.9969 43.8375 59.5505 43.8375Z" fill="#F3F3F3"/>
<path d="M44.4585 55.7668C43.6208 55.7682 42.8059 56.0549 42.1348 56.5841C41.4637 57.1134 40.9721 57.857 40.7331 58.7046H34.2137V49.2276C34.2137 48.9134 34.0955 48.6121 33.8851 48.3899C33.6746 48.1678 33.3892 48.043 33.0916 48.043C32.794 48.043 32.5086 48.1678 32.2982 48.3899C32.0878 48.6121 31.9695 48.9134 31.9695 49.2276V58.7046H25.8092C25.5399 57.76 24.9578 56.9491 24.1692 56.42C23.3806 55.8909 22.4381 55.6788 21.5136 55.8224C20.5892 55.9661 19.7445 56.456 19.1338 57.2026C18.523 57.9492 18.187 58.9028 18.187 59.8893C18.187 60.8758 18.523 61.8293 19.1338 62.576C19.7445 63.3226 20.5892 63.8124 21.5136 63.9561C22.4381 64.0998 23.3806 63.8877 24.1692 63.3586C24.9578 62.8294 25.5399 62.0185 25.8092 61.0739H40.7444C40.9544 61.8028 41.3522 62.4557 41.8933 62.9598C42.4345 63.4638 43.0977 63.7992 43.8089 63.9285C44.5201 64.0577 45.2513 63.9758 45.9209 63.6918C46.5906 63.4078 47.1723 62.9329 47.6011 62.3201C48.03 61.7074 48.289 60.9808 48.3495 60.2216C48.4099 59.4624 48.2693 58.7004 47.9433 58.0207C47.6174 57.341 47.1189 56.7703 46.5036 56.3723C45.8882 55.9743 45.1802 55.7646 44.4585 55.7668ZM22.0726 61.6307C21.6572 61.5945 21.2698 61.3948 20.9874 61.0711C20.705 60.7474 20.5483 60.3234 20.5483 59.8834C20.5483 59.4433 20.705 59.0193 20.9874 58.6956C21.2698 58.3719 21.6572 58.1722 22.0726 58.136C22.488 58.1722 22.8754 58.3719 23.1578 58.6956C23.4402 59.0193 23.5969 59.4433 23.5969 59.8834C23.5969 60.3234 23.4402 60.7474 23.1578 61.0711C22.8754 61.3948 22.488 61.5945 22.0726 61.6307ZM44.4585 61.6307C44.0431 61.5945 43.6557 61.3948 43.3733 61.0711C43.091 60.7474 42.9342 60.3234 42.9342 59.8834C42.9342 59.4433 43.091 59.0193 43.3733 58.6956C43.6557 58.3719 44.0431 58.1722 44.4585 58.136C44.8739 58.1722 45.2613 58.3719 45.5437 58.6956C45.8261 59.0193 45.9828 59.4433 45.9828 59.8834C45.9828 60.3234 45.8261 60.7474 45.5437 61.0711C45.2613 61.3948 44.8739 61.5945 44.4585 61.6307Z" fill="#F3F3F3"/>
</svg>

<svg xmlns="http://www.w3.org/2000/svg" fill="none" width="64" height="64" viewBox="0 0 64 64"><path d="M32.474 46.657a.62.62 0 0 0 .191.107c.067.036.139.06.213.071.298 0 .583-.125.794-.347.21-.222.328-.523.328-.837a1.22 1.22 0 0 0-.328-.838 1.093 1.093 0 0 0-.794-.347.648.648 0 0 0-.213.07.62.62 0 0 0-.19.108l-.18.142a1.19 1.19 0 0 0-.246.385 1.241 1.241 0 0 0 .246 1.297l.18.19z" fill="#F3F3F3"/><path d="M59.55 37.962a3.751 3.751 0 0 0-2.326.832 4.112 4.112 0 0 0-1.388 2.141h-2.883v-4.738h7.563c.163-.003.324-.044.47-.119 6.902-8.067 1.123-21.702-8.976-22.27-2.123-2.764-5.013-4.755-8.264-5.692a15.3 15.3 0 0 0-9.858.467C28.637-5.017 10.19-1.64 9.337 12.978a12.993 12.993 0 0 0-5.656 3.634 14.043 14.043 0 0 0-3.25 6.09 14.57 14.57 0 0 0-.012 6.99 14.05 14.05 0 0 0 3.228 6.102c.106.126.235.228.38.297.145.07.303.105.462.106h7.675v4.738H9.247a4.093 4.093 0 0 0-1.64-2.285 3.728 3.728 0 0 0-2.656-.597 3.842 3.842 0 0 0-2.38 1.38c-.61.747-.946 1.7-.946 2.687 0 .986.336 1.94.946 2.687a3.843 3.843 0 0 0 2.38 1.38 3.728 3.728 0 0 0 2.656-.598 4.094 4.094 0 0 0 1.64-2.285h3.972a1.07 1.07 0 0 0 .443-.083 1.12 1.12 0 0 0 .62-.652c.056-.146.084-.303.082-.461v-5.911h6.575v15.4h-6.171a4.094 4.094 0 0 0-1.64-2.285 3.728 3.728 0 0 0-2.656-.597 3.843 3.843 0 0 0-2.38 1.38 4.25 4.25 0 0 0-.947 2.686c0 .987.336 1.94.947 2.687a3.842 3.842 0 0 0 2.38 1.38 3.728 3.728 0 0 0 2.655-.597 4.094 4.094 0 0 0 1.64-2.285h7.305c.298 0 .583-.125.794-.347a1.22 1.22 0 0 0 .329-.838V36.197h8.774v5.923c0 .314.118.615.329.837.21.223.496.347.793.347.298 0 .583-.124.794-.347a1.22 1.22 0 0 0 .329-.837v-5.923h7.675V52.78c0 .315.118.616.328.838.21.222.496.347.794.347h7.26c.27.945.851 1.756 1.64 2.285.788.529 1.73.74 2.655.597a3.842 3.842 0 0 0 2.38-1.38c.61-.747.947-1.7.947-2.687 0-.986-.336-1.94-.947-2.686a3.843 3.843 0 0 0-2.38-1.38 3.728 3.728 0 0 0-2.655.597 4.094 4.094 0 0 0-1.64 2.285h-6.138v-15.4h6.575v5.923a1.24 1.24 0 0 0 .081.46 1.133 1.133 0 0 0 .621.653c.14.059.292.087.443.083h3.972a4.14 4.14 0 0 0 1.148 1.885c.54.504 1.203.84 1.914.97.71.129 1.441.048 2.11-.235a3.928 3.928 0 0 0 1.682-1.369 4.307 4.307 0 0 0 .35-4.296 4.035 4.035 0 0 0-1.436-1.65 3.742 3.742 0 0 0-2.043-.612v-.047zM5.533 43.885a1.64 1.64 0 0 1-1.19-.52 1.828 1.828 0 0 1-.494-1.257c0-.471.178-.923.493-1.257a1.64 1.64 0 0 1 1.19-.52c.446 0 .872.187 1.187.519.314.332.491.782.491 1.252s-.177.92-.491 1.252a1.634 1.634 0 0 1-1.186.519v.012zm5.51 10.662a1.64 1.64 0 0 1-1.191-.52 1.829 1.829 0 0 1-.493-1.257c0-.472.177-.924.493-1.257a1.64 1.64 0 0 1 1.19-.52c.444 0 .869.186 1.182.517.314.33.49.78.49 1.248 0 .468-.176.917-.49 1.248a1.628 1.628 0 0 1-1.182.517v.023zm42.942-3.554c.446 0 .874.187 1.19.52.316.333.493.785.493 1.257 0 .47-.177.923-.493 1.256a1.64 1.64 0 0 1-1.19.52c-.444 0-.869-.185-1.182-.517a1.816 1.816 0 0 1-.49-1.248c0-.468.176-.917.49-1.248a1.628 1.628 0 0 1 1.182-.517v-.023zM2.245 26.198c-.014-2.592.816-5.11 2.35-7.135 1.533-2.025 3.678-3.432 6.077-3.988.291-.06.548-.24.714-.5.166-.26.228-.578.172-.886-.06-2.705.819-5.34 2.47-7.407 1.652-2.069 3.963-3.428 6.498-3.823 2.535-.394 5.12.203 7.267 1.68 2.146 1.477 3.708 3.732 4.39 6.34a1.2 1.2 0 0 0 .23.444 1.129 1.129 0 0 0 .858.411c.163 0 .323-.037.471-.11a12.876 12.876 0 0 1 5.824-1.373c2.139 0 4.248.524 6.162 1.531a14.016 14.016 0 0 1 4.868 4.273c.102.14.233.255.383.335.15.08.314.123.481.127 8.18.107 13.151 10.543 8.472 17.687H4.95c-1.76-2.096-2.724-4.805-2.704-7.606zm57.306 17.64c-.447 0-.875-.188-1.19-.521a1.828 1.828 0 0 1-.494-1.257c0-.47.178-.923.493-1.256a1.64 1.64 0 0 1 1.19-.52c.447 0 .875.187 1.19.52.316.333.494.785.494 1.256 0 .472-.178.924-.493 1.257a1.64 1.64 0 0 1-1.19.52z" fill="#F3F3F3"/><path d="M44.459 55.767a3.76 3.76 0 0 0-2.324.817 4.119 4.119 0 0 0-1.401 2.12h-6.52v-9.476a1.22 1.22 0 0 0-.328-.838 1.093 1.093 0 0 0-.794-.347c-.297 0-.583.125-.793.347a1.22 1.22 0 0 0-.329.838v9.477h-6.16a4.094 4.094 0 0 0-1.64-2.285 3.728 3.728 0 0 0-2.656-.598 3.843 3.843 0 0 0-2.38 1.38c-.61.747-.947 1.7-.947 2.687 0 .987.336 1.94.947 2.687a3.843 3.843 0 0 0 2.38 1.38 3.728 3.728 0 0 0 2.656-.597 4.094 4.094 0 0 0 1.64-2.285h14.935c.21.729.608 1.382 1.149 1.886s1.204.84 1.915.968c.712.13 1.443.048 2.112-.236a3.929 3.929 0 0 0 1.68-1.372 4.307 4.307 0 0 0 .342-4.3 4.034 4.034 0 0 0-1.439-1.648 3.74 3.74 0 0 0-2.045-.605zM22.073 61.63a1.63 1.63 0 0 1-1.085-.56 1.808 1.808 0 0 1-.44-1.188c0-.44.158-.864.44-1.187a1.63 1.63 0 0 1 1.085-.56 1.63 1.63 0 0 1 1.085.56c.283.323.44.747.44 1.187 0 .44-.157.864-.44 1.188a1.63 1.63 0 0 1-1.085.56zm22.386 0a1.63 1.63 0 0 1-1.085-.56 1.808 1.808 0 0 1-.44-1.188c0-.44.157-.864.44-1.187a1.63 1.63 0 0 1 1.085-.56 1.63 1.63 0 0 1 1.085.56c.283.323.44.747.44 1.187 0 .44-.157.864-.44 1.188a1.63 1.63 0 0 1-1.085.56z" fill="#F3F3F3"/></svg>
